img/ellipse-4.svg

<svg fill="none" height="80" viewBox="0 0 148 80" width="148" xmlns="http://www.w3.org/2000/svg"><path d="m76.837 37.9863c0 .2847.2308.5156.5156.5156.2847 0 .5155-.2309.5155-.5156zm70.228 37.7453c.201-.2013.201-.5278 0-.7291l-3.281-3.2813c-.202-.2013-.528-.2013-.729 0-.202.2014-.202.5278 0 .7292l2.916 2.9166-2.916 2.9167c-.202.2014-.202.5278 0 .7292.201.2013.527.2013.729 0zm-107.8666-.8802c-20.7973 0-37.63861-16.515-37.63861-36.8651h-1.031198c0 20.9395 17.323008 37.8963 38.669808 37.8963zm-37.63861-36.8651c0-20.3502 16.84131-36.86523 37.63861-36.86523v-1.0311984c-21.3468 0-38.669808 16.9569284-38.669808 37.8964284zm37.63861-36.86523c20.7972 0 37.6386 16.51503 37.6386 36.86523h1.0311c0-20.9395-17.323-37.8964284-38.6697-37.8964284zm0 74.76153h107.5016v-1.0312h-107.5016z" fill="#5b57ca"/></svg>

<svg width="148" height="80" viewBox="0 0 148 80" fill="none" xmlns="http://www.w3.org/2000/svg">
<path d="M76.837 37.9863C76.837 38.271 77.0678 38.5019 77.3526 38.5019C77.6373 38.5019 77.8681 38.271 77.8681 37.9863H76.837ZM147.065 75.7316C147.266 75.5303 147.266 75.2038 147.065 75.0025L143.784 71.7212C143.582 71.5199 143.256 71.5199 143.055 71.7212C142.853 71.9226 142.853 72.249 143.055 72.4504L145.971 75.367L143.055 78.2837C142.853 78.4851 142.853 78.8115 143.055 79.0129C143.256 79.2142 143.582 79.2142 143.784 79.0129L147.065 75.7316ZM39.1984 74.8514C18.4011 74.8514 1.55979 58.3364 1.55979 37.9863H0.528592C0.528592 58.9258 17.8516 75.8826 39.1984 75.8826V74.8514ZM1.55979 37.9863C1.55979 17.6361 18.4011 1.12107 39.1984 1.12107V0.0898716C17.8516 0.0898716 0.528592 17.0468 0.528592 37.9863H1.55979ZM39.1984 1.12107C59.9956 1.12107 76.837 17.6361 76.837 37.9863H77.8681C77.8681 17.0468 60.5451 0.0898716 39.1984 0.0898716V1.12107ZM39.1984 75.8826H146.7V74.8514H39.1984V75.8826Z" fill="#5B57CA"/>
</svg>
